X: 13172
T: Sleepy Body
%R: air, jig, waltz
B: James Oswald "The Caledonian Pocket Companion" v.1 b.3 p.17 #2
S: https://ia800501.us.archive.org/18/items/caledonianpocket01rugg/caledonianpocket01rugg_bw.pdf
Z: 2020 John Chambers <jc:trillian.mit.edu>
N: Several strains lack pickup notes; fixed by adding initial rests.
N: The 16th-note runs in bars 29,34 are wiggly straight lines of unknown meaning, not normal slurs.
M: 6/8
L: 1/8
K: G
"_Slow"z |\
Bd2 Bg2 | Td>cB Ac2 | TB>cd (e/f/g)e | Td3 G2 :: (e/f/) |\
Tg>fe d>cB | c>dB A2(e/f/) | g>fe (d<B)d | Tg3 d2(e/f/) |
g(a/g/f/e/) dgG | c>dc/B/ ABc | TB>cd (e/f/g)e | Td3 G2 :: z |\
GBd Bgb | DFA cfa | gb2 eg2 | Td3 G2 :|
|: (e/f/) |\
g(a/g/f/e/) dgB | c>dB TA2f | (g/f/e/f/)g dBd | g3 d2(g/a/) |\
b>ag (e/f/g)e | (d<B)G A>Bc | Bd2 Bg2 | {e}Td3 G2 :|
|: z |\
B(d/c/)B g(b/a/g) | A(c/B/)A f(a/g/)f | (gb2) (eg2) | (d/e/d/c/B/)A/ G2 :: (e/f/) |\
"*1"(g/f/e/d/c/B/) "*1"(e/d/c/B/A/G/) | c>dB A(f/g/a/f/) |
(g/f/e/f/g/)e/ (d/c/B/c/d/)B/ | g3 d2(g/a/) | (b/a/g/a/b/)g/ (a/g/f/g/a/)f/ | "*1"(g/f/e/d/c/B/) ABc |\
(B/c/d)B (e/f/g)e | Td3 G2 :|
%%text 1) These "slurs" are actually squiggly straight lines.


